X:19
T:Jigs 9 - Spirit of the Dance
T:Lass O Dallogill
M:6/8
K:Gmaj
"G (C)"BAB D2 "C"D | E2 E "D (C)"D3 | "G (C)"BAB D2 "C"D | E2 F "D (C/D)"G3 |
"G (C)"BAB D2 "C"D | E2 E "D (C)"D3 | "G (C)"BAB D2 "C"D | E2 F "D (C/D)"G2 :|
A | "G"B2 G "D/F#"A2 F | "Em"G2 G "D"FED | "G"B2 G "D"A2 A | "G"B2 c "G/B"d3 |
"C"e2 c "G/B"d2 B | "Am"c2 A "Em"B3 | "C"BAB "D"D2 D | "D"E2 F G3 :|
T:Spirit of the dance
R:jig
M:6/8
L:1/8
K:G
"G"G2D "C"E2D | "G"G2D "C"E2D | "G"GAB "Am"c2B | "C"A2G "D"FED |
"G"G2D "C"E2D | "G"G2D "C"E2D | "G"GAB "Am"cde | "D"cAF "G"G3 :|
DGB "Am"c3  | "G"B3  "D"A3  | ABc "G"d3  | "D/F#"c3  "Em"B3|
GAB "Am"c3  | "G"B3  "D"A3  | "C"Bcs BAG | "D"B2A "G"G3 :|
%%newpage

